X: 1934
T: Arrane Ny Cloiedeyr-Viol
R: jig
M: 6/8
K: Gmajor
D|GBG ABc|e3 d2D|GBd AcB|G3 G2D|
GBG ABc|e3 d2D|GBd AcB|G3 G2d|
dBd gfg|e3 c2B|ABc edd|G3 F2D|
GBG ABc|e3 d2D|GBd AcB|G3 G2||

